X:1
T:In the Early Morning, Early
T:George Edgar Oliver, 1904
T:In the Early Morning, Early
T:Public Domain
T:Public Domain
T:Public Domain
C:George Edgar Oliver, 1904
Z:Public Domain
%%score ( 1 2 ) ( 3 4 )
L:1/8
M:4/4
K:Ab
V:1 treble 
V:2 treble 
V:3 bass 
V:4 bass 
V:1
"^Allegro con brio" [Cc-]4 (cB=AB) | (cBAG) (F2 E2) | ([CEc]2 [C=Ec]2 [CFAc]2 =ed) | %3
w: ~ * * * *|~ * * * ~ *|~ * * * *|
w: ~ * * * *|~ * * * ~ *|~ * * * *|
w: ~ * * * *|~ * * * ~ *|~ * * * *|
 (c2 F2) [_DB]4 | [Cc-]4 (cB=AB) | (cBAG) (F2 E2) | a2 (gf) f(e=de) | (fedB) [EA]4 || %8
w: ~ * ~|~ * * * *|~ * * * 1.~In *|ly morn- * ing, ear- * *|Ere * * * the|
w: ~ * ~|~ * * * *|~ * * * 2.~To *|ble Beth- * lehem shep- * *|On * * * the|
w: ~ * ~|~ * * * *|~ * * * 3.~Glo- *|the heavens * e- ter- * *|Up- * * * on|
 [Ae]2 [Ac]2 [Ad]2 (AE) | (BA)(Bc) [EB]2 [EA]2 | [FA]2 [=EG]2 F2 ([EG][FA]) | [=Dc]2 [DB]2 [_DE]4 | %12
w: was ev- en nigh, *|ri- * a * in~ex- cel-|o, Glo- ry be *|God on high.|
w: glad Christ- mas morn, *|the * choir * of God|ic, “Christ, the Son *|God, is born.”|
w: be glo- ry, too, *|the * day * of grace|en, And a King *|born to you.|
 G3 G (AG)(^FG) | A2 G2 E2 C2 | E2 [EG]2 [E=d]2 [Ec]2 | [=DF]3 [DG] E4 | [EG]2 [EA]2 [Gc]2 [FB]2 | %17
w: When the crown- * like *|lus- trous, When the|sod, Sang the an-|to the shep-|Sang the chor- is-|
w: When the dew * was *|pearl- y Flashed a|sky, In the ear-|morn- ing, ear-|“Glo- ry be to|
w: In the ear- * ly *|ear- ly, “Glo- ry|high” Rang the sound|an- gels harp-|Through the still and|
 [EA]2 [DG]2 [DF]2 [DE]2 | (EG)(BA) [DG]2 x2 | [DF]2 x6 | [DE]2 [DF]2 [DE]4 | %21
w: ters of God. *||||
w: God on high.” *||||
w: list’n- ing sky. *||||
 [Ae]2 [Ac]2 [Ad]2 (AE) | (BA)(Bc) [EB]2 [EA]2 | [DA]2 (B=B) [Ec]2 [EA]2 | [GB]3 [EA] [EA]4 || %25
w: ||||
w: ||||
w: ||||
V:2
 x4 D4- | D4 C4 | x6 [FB]2 | =D4 x4 | x4 D4 | D4 C4 | [A-_c]4 A4 | G4 x4 || x6 c2 | E2 E2 x4 | %10
w: ~|* ~|~|~|~|the ear-|ly, *|dawn|Glo-|sis De-|
w: ~|* ~|~|~|~|the hum-|herds, *|first|Sang|an- gel-|
w: ~|* ~|~|~|~|ry in|nal, *|earth|For|hath brok-|
 x4 F2 x2 | x8 | G3 G x4 | A2 G2 E2 C2 | E2 x6 | x4 E4 | x8 | x8 | E2 E2 x4 | x8 | x8 | x6 c2 | %22
w: to||stars were|dew was on the|gels|herds,|||||||
w: of||white and|light a- cross the|ly|ly,|||||||
w: is||morn- ing,|be to God on|of|ing|||||||
 E2 E2 x4 | x2 D2 x4 | x8 || %25
w: |||
w: |||
w: |||
V:3
 E,2 =E,2 F,4 | G,4 A,4 | ([A,,A,]2 [G,,G,]2 [F,,F,]2 [D,,D,]2) | ([B,,,B,,]2 [B,,A,]2) [E,G,]4 | %4
 E,2 =E,2 F,4 | G,4 A,4 | [D,F,A,_C]4 =C2 (=B,C) | D2 (B,D) [A,,A,C]4 || %8
 [A,,C]2 [A,,E]2 [A,,F]2 [A,,E]2 | (DC)(DE) [E,D]2 [E,C]2 | [F,A,]2 [G,B,]2 [A,C]2 ([G,B,][F,A,]) | %11
 [B,,A,]2 [B,,A,]2 [E,G,]4 | G,3 G, (A,G,)^F,G, | A,2 G,2 E,2 C,2 | %14
 [B,,G,]2 [B,,G,]2 [B,,_G,]2 [B,,=A,]2 | [B,,A,]3 [B,,B,] [E,G,]4 | [E,B,]2 [E,C]2 [E,E]2 (=D_D) | %17
 [E,C]2 [E,B,]2 [E,A,]2 [E,G,]2 | (G,B,)(DC) [E,B,]2 [E,A,]2 | [E,G,]2 [E,A,]2 [E,G,]4 | %20
 [A,,C]2 [A,,E]2 [A,,F]2 [A,,E]2 | (DC)(DE) [E,D]2 [E,C]2 | [F,=B,]2 (_B,A,) [E,A,]2 [E,C]2 | %23
 [E,D]3 [A,C] [A,C]4 | x8 || %25
V:4
 A,,8 | A,,8 | x8 | x8 | A,,8 | A,,8 | x4 E,4 | E,4 x4 || x8 | E,2 E,2 x4 | x8 | x8 | %12
 G,3 G, x ^F,G, x | A,2 G,2 E,2 C,2 | x8 | x8 | x6 E,2 | x8 | E,2 E,2 x4 | x8 | x8 | E,2 E,2 x4 | %22
 x2 F,2 x4 | x8 | x8 || %25

